build/img/ico-whats.svg

<svg width="20" height="20" viewBox="0 0 20 20" fill="none" xmlns="http://www.w3.org/2000/svg">
<path d="M18.5 10C18.5 14.6944 14.6944 18.5 10 18.5V19.5C15.2467 19.5 19.5 15.2467 19.5 10H18.5ZM10 18.5C5.30558 18.5 1.5 14.6944 1.5 10H0.5C0.5 15.2467 4.75329 19.5 10 19.5V18.5ZM1.5 10C1.5 5.30558 5.30558 1.5 10 1.5V0.5C4.75329 0.5 0.5 4.75329 0.5 10H1.5ZM10 1.5C14.6944 1.5 18.5 5.30558 18.5 10H19.5C19.5 4.75329 15.2467 0.5 10 0.5V1.5Z" fill="white"/>
<path fill-rule="evenodd" clip-rule="evenodd" d="M8.72729 5.568C8.64158 5.15619 8.4757 5.11671 8.32515 5.08211C8.20248 5.05283 8.06131 5.02586 7.92014 4.99889C7.78071 4.97225 7.53989 4.98469 7.30263 5.17701C7.06399 5.36712 6.41118 5.81511 6.19648 6.93897C5.98214 8.06095 6.5345 9.29239 6.60999 9.4646C6.68758 9.63526 7.59247 12.2742 9.5683 13.6003C11.2114 14.7012 11.6044 14.6205 11.9985 14.6568C12.3947 14.6916 13.3572 14.3436 13.6351 13.8435C13.9128 13.3453 14 12.8886 13.9661 12.7828C13.9321 12.6769 13.8017 12.5936 13.6109 12.4383C13.422 12.2834 12.4867 11.534 12.3062 11.4196C12.1271 11.3075 11.9931 11.2429 11.8085 11.4434C11.6239 11.6438 11.1194 12.0812 10.9666 12.2098C10.8138 12.3384 10.6882 12.3338 10.4971 12.1805C10.3081 12.0255 9.67262 11.6548 9.01258 10.7222C8.49902 9.99689 8.2163 9.16955 8.13635 8.91662C8.05606 8.66558 8.18955 8.56252 8.31777 8.46819C8.43301 8.38501 8.58138 8.24194 8.71318 8.12881C8.84324 8.01535 8.89605 7.92805 8.99659 7.78947C9.09538 7.65056 9.08602 7.51046 9.05563 7.38583C9.02525 7.2612 8.82935 6.05501 8.72729 5.568Z" fill="white"/>
</svg>

<svg width="20" height="20" fill="none" xmlns="http://www.w3.org/2000/svg"><path d="M18.5 10a8.5 8.5 0 01-8.5 8.5v1a9.5 9.5 0 009.5-9.5h-1zM10 18.5A8.5 8.5 0 011.5 10h-1a9.5 9.5 0 009.5 9.5v-1zM1.5 10A8.5 8.5 0 0110 1.5v-1A9.5 9.5 0 00.5 10h1zM10 1.5a8.5 8.5 0 018.5 8.5h1A9.5 9.5 0 0010 .5v1z" fill="#fff"/><path fill-rule="evenodd" clip-rule="evenodd" d="M8.727 5.568c-.085-.412-.251-.451-.402-.486A9.51 9.51 0 007.92 5a.763.763 0 00-.617.178c-.239.19-.892.638-1.107 1.762-.214 1.122.339 2.353.414 2.526.078.17.982 2.81 2.958 4.135 1.643 1.101 2.036 1.02 2.43 1.057.397.035 1.36-.313 1.637-.813.278-.499.365-.955.331-1.061-.034-.106-.164-.19-.355-.345-.189-.155-1.124-.904-1.305-1.018-.179-.113-.313-.177-.497.023-.185.2-.69.638-.842.767-.153.128-.279.124-.47-.03-.189-.155-.824-.525-1.484-1.458-.514-.725-.797-1.552-.877-1.805-.08-.251.054-.354.182-.449.115-.083.263-.226.395-.34.13-.113.183-.2.284-.339.098-.138.089-.279.059-.403-.03-.125-.227-1.331-.329-1.818z" fill="#fff"/></svg>
